X:1
T:Bruce's March [1]
M:4/4
L:1/8
S:Hoge ms. (Pa.), No. 22
K:D
D>F|A>B A>F A2 d>e|f2 f>e f2 ed|BA dB AFED|E2 E>F E2 D>F|
A>B A>F A2 d>e|f2 f>e f2 ed|BA dB AFEF|D2 D>D D2:|
|:f2|a2 a>f a3A|d>c d2>e f4|fefa bafd|e2 e>f e2 d>f|
a2 a>f a2 f>e|d2 d>B d2 cB|AF dB AFEF|D2 D>D D2:||

